X: 11665
T: Eileen O'Keefe's
R: polka
M: 2/4
K: Amajor
f|:ec BA/B/|cA F2|EF AB|cB cf|
ec BA/B/|cA F2|EF AB|1 cA Af:|2 cA AB||
|:ce a2|ce f2|ce fa/f/|ec BA/B/|
ce a2|ce fa/f/|ec BA/B/|1 cA AB:|2 cA Af||

